X:2441
L:1/4
M:6/4
K:Gmin
 G | d2 d c2 c | d3/2 c/ B A2 G | d3/2 e/ d c2 e | d3 G G | d2 d c2 c | d3/2 c/ B A2 G | 
 d3/2 e/ d c2 e | d3 G3 | c3 G B | A3 G3 | d3 G2 B | A3 G3 | c3 G2 B | A3 G3/2 G/ e | d4 ||

